icons/safari-fill.svg

<svg width="24" height="24" fill="none" xmlns="http://www.w3.org/2000/svg"><g clip-path="url(#a)"><path d="m16.7 6.8-6.114 3.786L6.8 16.7l-.104-.104-1.415 1.414.708.708 1.414-1.415L7.3 17.2l6.114-3.785L17.2 7.3l.104.104 1.415-1.414-.708-.708-1.414 1.415.104.104L16.7 6.8ZM12 22C6.477 22 2 17.523 2 12S6.477 2 12 2s10 4.477 10 10-4.477 10-10 10Zm-.5-19v2h1V3h-1Zm0 16v2h1v-2h-1ZM8.094 3.876l.765 1.848.924-.382-.765-1.848-.924.382Zm6.123 14.782.765 1.848.924-.382-.765-1.848-.924.382Zm.765-15.164-.765 1.848.924.382.765-1.848-.924-.382ZM8.86 18.276l-.765 1.848.924.382.765-1.848-.924-.382ZM21 11.5h-2v1h2v-1Zm-16 0H3v1h2v-1Zm15.458 3.615-1.835-.794-.397.918 1.835.794.397-.918ZM5.774 8.761 3.94 7.967l-.397.918 1.835.794.397-.918h-.001Zm14.35-.667-1.848.765.382.924 1.848-.765-.382-.924ZM5.342 14.217l-1.848.765.382.924 1.848-.765-.382-.924Zm13.376 3.793-1.415-1.414-.707.707 1.414 1.415.708-.708ZM7.404 6.697 5.99 5.282l-.708.708 1.415 1.414.707-.707Zm3.908 4.615 3.611-2.235-2.235 3.61-1.376-1.375Z" /></g><defs><clipPath id="a"><path fill="#fff" d="M0 0h24v24H0z"/></clipPath></defs></svg>

<svg xmlns="http://www.w3.org/2000/svg" width="24" height="24" fill="none"><g clip-path="url(#a)"><g><path fill="#121212" d="M16.7 6.8L10.586 10.586L6.8 16.7L6.696 16.596L5.281 18.01L5.989 18.718L7.403 17.303L7.3 17.2L13.414 13.415L17.2 7.3L17.304 7.404L18.719 5.99L18.011 5.282L16.597 6.697L16.701 6.801L16.7 6.8ZM12 22C6.477 22 2 17.523 2 12C2 6.477 6.477 2 12 2C17.523 2 22 6.477 22 12C22 17.523 17.523 22 12 22ZM11.5 3V5H12.5V3H11.5ZM11.5 19V21H12.5V19H11.5ZM8.094 3.876L8.859 5.724L9.783 5.342L9.018 3.494L8.094 3.876ZM14.217 18.658L14.982 20.506L15.906 20.124L15.141 18.276L14.217 18.658ZM14.982 3.494L14.217 5.342L15.141 5.724L15.906 3.876L14.982 3.494ZM8.86 18.276L8.095 20.124L9.019 20.506L9.784 18.658L8.86 18.276ZM21 11.5H19V12.5H21V11.5ZM5 11.5H3V12.5H5V11.5ZM20.458 15.115L18.623 14.321L18.226 15.239L20.061 16.033L20.458 15.115ZM5.774 8.761L3.94 7.967L3.543 8.885L5.378 9.679L5.775 8.761H5.774ZM20.124 8.094L18.276 8.859L18.658 9.783L20.506 9.018L20.124 8.094ZM5.342 14.217L3.494 14.982L3.876 15.906L5.724 15.141L5.342 14.217ZM18.718 18.01L17.303 16.596L16.596 17.303L18.01 18.718L18.718 18.01ZM7.404 6.697L5.99 5.282L5.282 5.99L6.697 7.404L7.404 6.697ZM11.312 11.312L14.923 9.077L12.688 12.687L11.312 11.312Z"/></g></g><defs><clipPath id="a"><rect width="24" height="24" fill="white"/></clipPath></defs></svg>
